X: 39183
T: Swinging Around The Circle
R: hornpipe
M: 4/4
K: Dmajor
|:FG|ABAG FDFA|BABc dcdB|AFdB AFDF|EDEF E2FG|
ABAG FDFA|BABc dcdB|AdcB AGFE|D2DE D2:|
|:FG|Addd Addd|Adfd edcd|efgf edcf|edcB AGFG|
Addd Addd|Adfd edcd|efgf edce|d2dc d2:|

